X:1
T: Braw Lads
C:
R:Strathspey
Q: 128
K:D
M:4/4
L:1/16
|:A3d B3d A3d B3d|AA3 d3e f6d2|gg3 g3b a3f e3d|e3f e3d B4A4|
A3d B3d A3d B3d|AA3 d3e f6d2|gg3 g3b a3f e3d|e3f e3d B4A4|
a3d f3d a3d f3d|aa3 d3e f6a2|b3e g3e b3e g3e|bb3 e3f g4 f3g|
a3d f3d a3d f3d|aa3 d3e f6a2|b3g a3f g3e f3d|eg3 f3e d8:|
